X: 19
T:Kajelus
T:Rochdale Coconut Dance
M:2/4
L:1/8
Q:400
Z:Brian Martin <brian_martin12345@yahoo.com> Winterbourn Downs Morris  (rcvd Jan 2003)
K:Eminor
EFGF | E2B2 | EFGF | E2B2 | c2Ac | B2G2 | AGFE | D4 | EFGF | E2B2 | EFGF | E2B2 | c2Ac | B2G2 | AG FE | D2dd |]
G2BB | G2B2 | AGFG | A2dd | G2BB | G2B2 | AGFE | D2dd | G2BB | G2B2 | AGFG | A2dc | BdcB | AcBA | G2 F2 | G2D2 |]
